!!!SOCIAL_FUNCTION:	songs with treatment of the sick
!!!PDT:	1932
!!!OTL: No_42_Song_When_Treating_the_Sick_(c).krn
!!!REG: Southwest
!!!LANG: Non-Tone
!!!LING_GROUP: Yuman-Cochimi
**kern
*staff1
=1-
*clefF4
*k[f#c#g#]
*M2/4
4E\
8C#/L
8E/J
=2
4E\
4C#/
=3
4E\
4C#/
=4||
*M3/4
4E\
8C#/L
8C#/J
8r
8E\
=5||
*M2/4
4C#/
8C#/L
8C#/J
=6||
*M3/4
4E\
4E\
8E/L
8C#/J
=7||
*M2/4
4E\
8C#/L
8C#/J
=8
4E\
4C#/
=9
8F#\L
8E\J
4E\
=10
8r
8E\
8C#/L
8E/J
=11||
*M3/4
4E\
8C#/L
8E/J
8r
16r
16E\
=12
4E\
8E\L
8E\J
8F#\L
8E\J
=13||
*M2/4
4F#\
8F#\L
8B\J
=14
4A\
4F#\
=15
(4E\
4C#/)
=16||
*M3/4
8E\L
8E\J
8r
16r
16E\
8E\L
8E\J
=17
4E\
4E\
8F#/L
8C#/J
=18
4E\
8C#/L
8E/J
8r
16r
16E\
=19||
*M2/4
4E\
8.C#/L
16E/Jk
=20||
*M3/4
8E\L
8F#\J
8C#/L
8C#/J
8r
8E\
=21||
*M2/4
8E\L
8E\J
4E\
=22||
*M5/8
4E\
8F#\L
8E\
8F#\J
=23||
*M2/4
4F#\
8F#\L
8B\J
=24
4A\
4F#\
=25||
*M3/4
4E\
8C#/L
8E/J
8r
16r
16E\
=26
4E\
4E\
8F#/L
8C#/J
=27
4E\
8C#/L
8E/J
8r
16r
16E\
=28||
*M2/4
4E\
4E\
=29
8E\L
8F#\J
8C#/
16r
16E\
=30||
*M3/4
8E\L
8F#\J
4C#/
8r
16r
16E\
=31
4E\
8E\L
8F#\J
8C#/
16r
16E\
=32
8E\L
8E\J
4C#/
8C#/L
8E/J
=33
4C#/
8C#/L
8E/J
8r
16r
16E\
=34||
*M2/4
4E\
4E\
=35
8E\L
8F#\J
8C#/
16r
16E\
=36||
*M3/4
4E\
4C#/
8C#/L
8E/J
=37
4C#/
8C#/L
8E/J
8r
16r
16E\
=38||
*M2/4
4E\
8E\L
8E\J
=39
4E\
4E\
=40||
*M3/8
8F#\L
8E\
8F#\J
=41||
*M2/4
4F#\
8F#\L
8B\J
=42
4A\
4F#\
=43||
*M3/4
4E\
4C#/
4C#/
=44||
*M2/4
4E\
4E\
=45||
*M3/4
8E\L
8E\J
4E\
8.r
16E\
=46||
*M2/4
4E\
8C#/L
8C#/J
=47
4E\
4E\
=48||
!!pagebreak:default
*M3/8
8F#\L
8C#\
8E\J
=49||
*M2/4
4C#/
8r
16r
16E\
=50
4E\
4E\
=51||
*M3/4
4E\
4E\
8r
16r
16E\
=52||
*M2/4
4E\
4E\
=53
8E\L
8E\J
8.r
16E\
=54
4E\
8E\L
8E\J
=55
4E\
4E\
=56||
*M3/8
8F#\L
8E\
8F#\J
=57||
*M2/4
4F#\
8F#\L
8B\J
=58
4A\
4F#\
=59
4E\
4C#/
=60||
*M3/4
4E\
8E\L
8E\J
8r
16r
16E\
=61
4E\
8C#/L
8C#/J
4r
=62||
*M3/8
4E\
8E\
=63
8F#\L
8C#\
8E\J
=64||
*M2/4
4C#/
8r
16r
16E\
=65
4E\
4E\
=66
4E\
4E\
=67
8r
16r
16E\
8E\L
8E\J
=68||
*M3/4
4E\
8E\L
8E\J
8r
16r
16E\
=69||
*M2/4
4E\
8E\L
8E\J
=70
4E\
8E\
8r
=71||
*M3/8
8F#\L
8E\
8F#\J
=72||
*M2/4
4F#\
8F#\L
8B\J
=73
4A\
4F#\
=74||
*M3/4
4E\
8C#/L
8C#/J
8r
16r
16E\
=75||
*M2/4
4E\
8E\L
8E\J
=76
4E\
8C#/
16r
16E\
=77
4E\
8C#/L
16C#/Jk
16r
=78||
*M3/8
4E\
8E\
=79
8F#\L
8C#\
8E\J
=80||
*M2/4
4C#/
8r
8E\
=81
4E\
4E\
=82
4E\
4E\
==
*-
